icons/solid/light-bulb.svg

<svg width="24" height="24" viewBox="0 0 24 24" fill="none" xmlns="http://www.w3.org/2000/svg">
<path fill-rule="evenodd" clip-rule="evenodd" d="M13 3C13 2.44772 12.5523 2 12 2C11.4477 2 11 2.44772 11 3V4C11 4.55228 11.4477 5 12 5C12.5523 5 13 4.55228 13 4V3ZM6.20711 4.79289C5.81658 4.40237 5.18342 4.40237 4.79289 4.79289C4.40237 5.18342 4.40237 5.81658 4.79289 6.20711L5.79289 7.20711C6.18342 7.59763 6.81658 7.59763 7.20711 7.20711C7.59763 6.81658 7.59763 6.18342 7.20711 5.79289L6.20711 4.79289ZM19.2071 6.20711C19.5976 5.81658 19.5976 5.18342 19.2071 4.79289C18.8166 4.40237 18.1834 4.40237 17.7929 4.79289L16.7929 5.79289C16.4024 6.18342 16.4024 6.81658 16.7929 7.20711C17.1834 7.59763 17.8166 7.59763 18.2071 7.20711L19.2071 6.20711ZM12 6C8.68629 6 6 8.68629 6 12C6 14.0883 7.06676 15.9258 8.68257 17H15.3174C16.9332 15.9258 18 14.0883 18 12C18 8.68629 15.3137 6 12 6ZM15 18H9V19C9 20.6569 10.3431 22 12 22C13.6569 22 15 20.6569 15 19V18ZM3 11C2.44772 11 2 11.4477 2 12C2 12.5523 2.44772 13 3 13H4C4.55228 13 5 12.5523 5 12C5 11.4477 4.55228 11 4 11H3ZM20 11C19.4477 11 19 11.4477 19 12C19 12.5523 19.4477 13 20 13H21C21.5523 13 22 12.5523 22 12C22 11.4477 21.5523 11 21 11H20Z" fill="currentColor"/>
</svg>

<svg width="24" height="24" fill="none" xmlns="http://www.w3.org/2000/svg"><path fill-rule="evenodd" clip-rule="evenodd" d="M13 3a1 1 0 10-2 0v1a1 1 0 102 0V3zM6.207 4.793a1 1 0 00-1.414 1.414l1 1a1 1 0 001.414-1.414l-1-1zm13 1.414a1 1 0 00-1.414-1.414l-1 1a1 1 0 001.414 1.414l1-1zM12 6a6 6 0 00-3.317 11h6.634A6 6 0 0012 6zm3 12H9v1a3 3 0 106 0v-1zM3 11a1 1 0 100 2h1a1 1 0 100-2H3zm17 0a1 1 0 100 2h1a1 1 0 100-2h-1z" fill="currentColor"/></svg>
